X:1
T:St. Anne's Reel
L:1/4
M:4/4
I:linebreak $
K:D
V:1 treble
V:1
 d/e/ |"D" f f/g/ f/e/d/B/ | A F F F/A/ |"G" B G G G/B/ | A F F d/e/ |$
 f f/g/ f/e/d/B/ | A F F F/A/ |"G"  B G "A"c e |"D" d f d ::$
 a/g/ | "D"f d f a | "Em"a/g/ g g g/f/ |"A" e c e g |"D" b a a a/g/ |$
 "D"f d f a | "Em" a/g/ g g g/f/ |"A" e c A e |"D" e d d :|
